icons/op-edit-24.svg

<svg width="24" height="24" viewBox="0 0 24 24" fill="none" xmlns="http://www.w3.org/2000/svg">
<path d="M4 20L4.37656 17.3769L4.75312 14.7537L6.9811 17.0292L9.20908 19.2731L6.60454 19.6208L4 20ZM16.6461 10.266L9.93082 16.9976L9.20908 16.2391L15.893 9.50746L14.3868 8.02207L7.70284 14.7537L6.9811 13.9952L13.665 7.26357L12.9119 6.50508L5.47486 13.9952L9.93082 18.483L17.3679 11.0245L16.6461 10.266ZM19.7214 8.78057C20.0979 8.40132 20.0979 7.73763 19.69 7.32678L16.7089 4.3244C16.301 3.91354 15.642 3.88194 15.2654 4.29279L15.1713 4.3876L13.7278 5.80979L18.1838 10.2976L19.6272 8.87538L19.5959 8.84377C19.6272 8.81217 19.69 8.81217 19.7214 8.78057Z" fill="black"/>
</svg>

<svg xmlns="http://www.w3.org/2000/svg" width="24" height="24" viewBox="0 0 24 24"><path d="m4 20 .377-2.623.376-2.623 2.228 2.275 2.228 2.244-2.604.348L4 20Zm12.646-9.734-6.715 6.732-.722-.759 6.684-6.732-1.506-1.485-6.684 6.732-.722-.759 6.684-6.731-.753-.759-7.437 7.49 4.456 4.488 7.437-7.459-.722-.758Zm3.075-1.485c.377-.38.377-1.043-.031-1.454l-2.981-3.003c-.408-.41-1.067-.442-1.444-.031l-.094.095-1.443 1.422 4.456 4.488 1.443-1.423-.031-.031c.031-.032.094-.032.125-.063Z"/></svg>
